X: 10031
M: 2/4
L: 1/8
K: G
V: 1 staves=3
g>f e>d | d2 B>d | c>B c>A |
g>f e>d | d2 B>d | c>B c>A | G2 z2 |\
d2 cA | G2 A>B | B3 d | g>f e>d |\
d2 B>d | de cF | G2 z |]
V: 2
e>d c>B | B2 G>B |
e>d c>B | B2 G>B | A>G A>F | G2 z2 |\
d2 Bd | A2 F>F | G2 z |]
V: 3 clef=bass middle=d
g |\
g2 g>g | g2 g>g | d2 d2 | g3 g |\
g2 g>g | g2 g>g | d2 d2 | g2 zg |\
g2 g>g | g2 g>g |
d2 d2 | g3 g |\
g3 g | g2 g>g | d2 d2 | g2z2 |\
z4 | z4 | g3 g | g3 g |\
g3 g | c2 d>d | g2 z |]


